X: 667
T: Planxty Denis O'Conor   #2
T: pleraca donca\.d ua con\.co\.bair
R: jig
%S: s:5 b:24(5+4+4+4+4)
C: O'Carolan
B: O'Neill's 1850 #667
Z: 1997 by John Chambers <jc@trillian.mit.edu>
Q: "Spirited"
M: 6/8
L: 1/8
K: Bb
"^A"|: B2B BcA | B2f fge | d2e fdB |[1 {c}BAB cAF :|[2 FGA B2z |]
"^B"[| f2f fga | b2f gfe | d2e fdB |{c}BAB cAF ||
    || f2f fga | b2b bag | f2g fdB | FGA B2z |]
"^C"[| B,DF BAB | cAF FGA | Bcd dcB | cAF EDC ||
    || B,DF BAB | cde edc | f2F FGA | B3 B2z |]
